contributed-vectors/glan.svg

<svg xmlns="http://www.w3.org/2000/svg" xml:space="preserve" style="fill-rule:evenodd;clip-rule:evenodd;stroke-linejoin:round;stroke-miterlimit:2" viewBox="0 0 192 192"><path d="M164.5 21.5c0-5.519-4.481-10-10-10h-133c-5.519 0-10 4.481-10 10v133c0 5.519 4.481 10 10 10h133c5.519 0 10-4.481 10-10v-133Z" style="fill:#ff837d" transform="translate(8 8)"/><circle cx="96" cy="96" r="51.758" style="fill:#f8c18c"/><circle cx="96" cy="96" r="51.758" style="fill:#fff" transform="matrix(.84712 0 0 .84712 14.677 14.677)"/><path d="M92.251 44.376a52.927 52.927 0 0 1 7.498 0V57.24a3.742 3.742 0 0 1-3.742 3.742h-.014a3.742 3.742 0 0 1-3.742-3.742V44.376Z" style="fill:#f8c18c"/><path d="M92.251 44.376a52.927 52.927 0 0 1 7.498 0V57.24a3.742 3.742 0 0 1-3.742 3.742h-.014a3.742 3.742 0 0 1-3.742-3.742V44.376Z" style="fill:#f8c18c" transform="rotate(-45 96 96)"/><path d="M92.251 44.376a52.927 52.927 0 0 1 7.498 0V57.24a3.742 3.742 0 0 1-3.742 3.742h-.014a3.742 3.742 0 0 1-3.742-3.742V44.376Z" style="fill:#f8c18c" transform="rotate(-90 96 96)"/><path d="M92.251 44.376a52.927 52.927 0 0 1 7.498 0V57.24a3.742 3.742 0 0 1-3.742 3.742h-.014a3.742 3.742 0 0 1-3.742-3.742V44.376Z" style="fill:#f8c18c" transform="rotate(-135 96 96)"/><path d="M92.251 44.376a52.927 52.927 0 0 1 7.498 0V57.24a3.742 3.742 0 0 1-3.742 3.742h-.014a3.742 3.742 0 0 1-3.742-3.742V44.376Z" style="fill:#f8c18c" transform="rotate(180 96 96)"/><path d="M92.251 44.376a52.927 52.927 0 0 1 7.498 0V57.24a3.742 3.742 0 0 1-3.742 3.742h-.014a3.742 3.742 0 0 1-3.742-3.742V44.376Z" style="fill:#f8c18c" transform="rotate(135 96 96)"/><path d="M92.251 44.376a52.927 52.927 0 0 1 7.498 0V57.24a3.742 3.742 0 0 1-3.742 3.742h-.014a3.742 3.742 0 0 1-3.742-3.742V44.376Z" style="fill:#f8c18c" transform="rotate(90 96 96)"/><path d="M92.251 44.376a52.927 52.927 0 0 1 7.498 0V57.24a3.742 3.742 0 0 1-3.742 3.742h-.014a3.742 3.742 0 0 1-3.742-3.742V44.376Z" style="fill:#f8c18c" transform="rotate(45 96 96)"/><text x="76.02" y="107.682" style="font-family:&quot;Montserrat-ExtraBold&quot;,&quot;Montserrat&quot;;font-weight:800;font-size:34.101px;fill:#ff837d" transform="translate(-.089 .253)">25</text></svg>

<?xml version="1.0" encoding="UTF-8" standalone="no"?>
<!DOCTYPE svg PUBLIC "-//W3C//DTD SVG 1.1//EN" "http://www.w3.org/Graphics/SVG/1.1/DTD/svg11.dtd">
<svg width="100%" height="100%" viewBox="0 0 192 192" version="1.1" xmlns="http://www.w3.org/2000/svg" xmlns:xlink="http://www.w3.org/1999/xlink" xml:space="preserve" xmlns:serif="http://www.serif.com/" style="fill-rule:evenodd;clip-rule:evenodd;stroke-linejoin:round;stroke-miterlimit:2;">
    <g id="Layer1">
        <g transform="matrix(1,0,0,1,8,8)">
            <path d="M164.5,21.5C164.5,15.981 160.019,11.5 154.5,11.5L21.5,11.5C15.981,11.5 11.5,15.981 11.5,21.5L11.5,154.5C11.5,160.019 15.981,164.5 21.5,164.5L154.5,164.5C160.019,164.5 164.5,160.019 164.5,154.5L164.5,21.5Z" style="fill:rgb(255,131,125);"/>
        </g>
        <circle cx="96" cy="96" r="51.758" style="fill:rgb(248,193,140);"/>
        <g transform="matrix(0.847119,0,0,0.847119,14.6765,14.6765)">
            <circle cx="96" cy="96" r="51.758" style="fill:white;"/>
        </g>
        <g>
            <path d="M92.251,44.376C93.491,44.288 94.74,44.242 96,44.242C97.26,44.242 98.509,44.288 99.749,44.376L99.749,57.24C99.749,59.307 98.074,60.982 96.007,60.982C96.002,60.982 95.998,60.982 95.993,60.982C93.926,60.982 92.251,59.307 92.251,57.24L92.251,44.376Z" style="fill:rgb(248,193,140);"/>
            <g transform="matrix(0.707107,-0.707107,0.707107,0.707107,-39.7645,96)">
                <path d="M92.251,44.376C93.491,44.288 94.74,44.242 96,44.242C97.26,44.242 98.509,44.288 99.749,44.376L99.749,57.24C99.749,59.307 98.074,60.982 96.007,60.982C96.002,60.982 95.998,60.982 95.993,60.982C93.926,60.982 92.251,59.307 92.251,57.24L92.251,44.376Z" style="fill:rgb(248,193,140);"/>
            </g>
            <g transform="matrix(0,-1,1,0,-2.13163e-14,192)">
                <path d="M92.251,44.376C93.491,44.288 94.74,44.242 96,44.242C97.26,44.242 98.509,44.288 99.749,44.376L99.749,57.24C99.749,59.307 98.074,60.982 96.007,60.982C96.002,60.982 95.998,60.982 95.993,60.982C93.926,60.982 92.251,59.307 92.251,57.24L92.251,44.376Z" style="fill:rgb(248,193,140);"/>
            </g>
            <g transform="matrix(-0.707107,-0.707107,0.707107,-0.707107,96,231.765)">
                <path d="M92.251,44.376C93.491,44.288 94.74,44.242 96,44.242C97.26,44.242 98.509,44.288 99.749,44.376L99.749,57.24C99.749,59.307 98.074,60.982 96.007,60.982C96.002,60.982 95.998,60.982 95.993,60.982C93.926,60.982 92.251,59.307 92.251,57.24L92.251,44.376Z" style="fill:rgb(248,193,140);"/>
            </g>
            <g transform="matrix(-1,0,0,-1,192,192)">
                <path d="M92.251,44.376C93.491,44.288 94.74,44.242 96,44.242C97.26,44.242 98.509,44.288 99.749,44.376L99.749,57.24C99.749,59.307 98.074,60.982 96.007,60.982C96.002,60.982 95.998,60.982 95.993,60.982C93.926,60.982 92.251,59.307 92.251,57.24L92.251,44.376Z" style="fill:rgb(248,193,140);"/>
            </g>
            <g transform="matrix(-0.707107,0.707107,-0.707107,-0.707107,231.765,96)">
                <path d="M92.251,44.376C93.491,44.288 94.74,44.242 96,44.242C97.26,44.242 98.509,44.288 99.749,44.376L99.749,57.24C99.749,59.307 98.074,60.982 96.007,60.982C96.002,60.982 95.998,60.982 95.993,60.982C93.926,60.982 92.251,59.307 92.251,57.24L92.251,44.376Z" style="fill:rgb(248,193,140);"/>
            </g>
            <g transform="matrix(0,1,-1,0,192,-1.42109e-14)">
                <path d="M92.251,44.376C93.491,44.288 94.74,44.242 96,44.242C97.26,44.242 98.509,44.288 99.749,44.376L99.749,57.24C99.749,59.307 98.074,60.982 96.007,60.982C96.002,60.982 95.998,60.982 95.993,60.982C93.926,60.982 92.251,59.307 92.251,57.24L92.251,44.376Z" style="fill:rgb(248,193,140);"/>
            </g>
            <g transform="matrix(0.707107,0.707107,-0.707107,0.707107,96,-39.7645)">
                <path d="M92.251,44.376C93.491,44.288 94.74,44.242 96,44.242C97.26,44.242 98.509,44.288 99.749,44.376L99.749,57.24C99.749,59.307 98.074,60.982 96.007,60.982C96.002,60.982 95.998,60.982 95.993,60.982C93.926,60.982 92.251,59.307 92.251,57.24L92.251,44.376Z" style="fill:rgb(248,193,140);"/>
            </g>
        </g>
        <g transform="matrix(1,0,0,1,-0.0890089,0.253316)">
            <text x="76.02px" y="107.682px" style="font-family:'Montserrat-ExtraBold', 'Montserrat';font-weight:800;font-size:34.101px;fill:rgb(255,131,125);">25</text>
        </g>
    </g>
</svg>
